lib/logotmp/nrk-logo-nrk-sapmi-with-bg.svg

<svg width="98" height="24" viewBox="0 0 98 24" fill="none" xmlns="http://www.w3.org/2000/svg">
<rect width="98" height="24" fill="#1767CE"/>
<path d="M6 17.9973V5.9984H10V17.9973H6ZM15.2438 7.90809L17.5081 17.9973H13.1992L10.4955 5.9984H12.9122C13.4663 5.99121 14.0041 6.18656 14.4245 6.5477C14.8456 6.8937 15.0849 7.37401 15.2438 7.90809ZM18 17.9973V5.9984H22V17.9973H18ZM25.0105 10.5614C24.5862 10.5655 24.1687 10.4545 23.8025 10.2403C23.4412 10.0314 23.1411 9.73127 22.9323 9.36991C22.7178 9.00364 22.6068 8.58607 22.611 8.16163C22.6061 7.73978 22.7172 7.32469 22.9323 6.96174C23.1433 6.6043 23.4431 6.30741 23.8025 6.09983C24.1689 5.88582 24.5862 5.77483 25.0105 5.7787C25.4322 5.77416 25.8471 5.88524 26.2102 6.09983C26.566 6.30923 26.8626 6.60588 27.072 6.96174C27.2868 7.32479 27.3979 7.73981 27.3933 8.16163C27.3973 8.58604 27.2863 9.00354 27.072 9.36991C26.8649 9.72969 26.5679 10.0296 26.2102 10.2403C25.8471 10.4553 25.4324 10.5664 25.0105 10.5614ZM28 17.9973V5.9984H32V17.9973H28ZM36.9737 12.5555C36.9848 12.5672 37.0693 12.7052 37.2272 12.9696C37.3851 13.234 37.5906 13.572 37.8439 13.9836C38.0974 14.395 38.3649 14.8316 38.6463 15.2933C38.9278 15.755 39.1926 16.1917 39.4408 16.6031C39.6881 17.0145 39.9697 17.4792 40.2857 17.9973H35.9598C35.6893 17.5579 35.4441 17.1608 35.2245 16.8059C35.0048 16.451 34.7713 16.0679 34.5238 15.6567C34.2758 15.2458 34.0306 14.8458 33.7882 14.4568C33.5458 14.0677 33.3375 13.7269 33.1633 13.4344C32.9883 13.1416 32.8671 12.9444 32.7997 12.8428C32.6325 12.5908 32.5336 12.2996 32.5127 11.9979C32.5294 11.7082 32.6226 11.4283 32.7828 11.1864C32.8503 11.0738 32.9743 10.8737 33.1545 10.5864C33.3348 10.2991 33.546 9.95837 33.7882 9.56404C34.0304 9.16971 34.2756 8.76692 34.5238 8.35569C34.772 7.94446 35.0055 7.55855 35.2245 7.19802C35.4445 6.83787 35.6897 6.4379 35.9598 5.99813H40.2857L36.9396 11.4568C36.8361 11.6189 36.7777 11.8057 36.7706 11.9979C36.7818 12.1996 36.8528 12.3936 36.9737 12.5555Z" fill="white"/>
<path d="M51.6564 12.36C51.4127 12.1084 51.1299 11.899 50.8193 11.7402C50.4937 11.5731 50.1548 11.434 49.8063 11.3243C49.4488 11.2111 49.0804 11.1148 48.7013 11.0354C48.4107 10.9676 48.1401 10.8998 47.8893 10.8319C47.6588 10.7716 47.4345 10.6891 47.2196 10.5854C47.0348 10.4967 46.863 10.3825 46.7092 10.2459C46.5643 10.1163 46.4522 9.95338 46.3824 9.77073C46.3051 9.55594 46.2683 9.32838 46.2736 9.0998C46.2698 8.86312 46.3066 8.62758 46.3824 8.40369C46.4511 8.20617 46.566 8.02847 46.7173 7.88582C46.874 7.74026 47.0521 7.62012 47.245 7.52957C47.4654 7.42767 47.6994 7.359 47.9395 7.3258C48.2252 7.28453 48.5135 7.26468 48.8021 7.26639C49.0648 7.26691 49.3273 7.28099 49.5887 7.30857C49.8532 7.33656 50.116 7.37914 50.3759 7.43617C50.6282 7.49171 50.877 7.56258 51.1209 7.6484C51.3493 7.72804 51.5706 7.82737 51.7823 7.94527L52.0167 6.45141C51.7786 6.32546 51.5291 6.22312 51.2716 6.14581C51.0091 6.06677 50.7441 5.99874 50.4764 5.94177C50.2053 5.88496 49.9314 5.84255 49.6559 5.81472C49.3769 5.78642 49.0923 5.77226 48.8021 5.77226C48.21 5.76577 47.6195 5.83412 47.0441 5.97572C46.5541 6.09568 46.0912 6.30898 45.6798 6.60423C45.3006 6.87999 44.9955 7.2476 44.7924 7.67358C44.5757 8.15235 44.4698 8.67503 44.4827 9.20167C44.4731 9.60923 44.5384 10.015 44.6752 10.3984C44.7952 10.7198 44.9805 11.012 45.2191 11.2561C45.4552 11.4949 45.7263 11.6953 46.0228 11.8503C46.3372 12.0146 46.665 12.1511 47.0025 12.2581C47.3541 12.3713 47.714 12.4675 48.0824 12.5468C48.3838 12.6145 48.6628 12.6852 48.9195 12.759C49.1583 12.8257 49.3907 12.9137 49.6141 13.0221C49.8062 13.1142 49.984 13.2343 50.1418 13.3787C50.2913 13.5212 50.4083 13.695 50.4847 13.8881C50.5736 14.1207 50.6164 14.3687 50.6106 14.6181C50.615 14.8833 50.5754 15.1473 50.4934 15.3992C50.4199 15.617 50.3062 15.8186 50.1585 15.9934C50.01 16.1657 49.8275 16.3044 49.6227 16.4006C49.3914 16.5087 49.1462 16.5831 48.8944 16.6216C48.587 16.6694 48.2764 16.6922 47.9655 16.6895C47.6632 16.6888 47.3612 16.6689 47.0614 16.6301C46.7488 16.5905 46.4362 16.5366 46.1235 16.4685C45.8155 16.402 45.5111 16.3198 45.2112 16.2223C44.9151 16.1267 44.6332 16.0277 44.3657 15.9255L44.5834 17.6064C44.8688 17.7144 45.1594 17.8078 45.454 17.8863C45.7215 17.9574 45.9924 18.0141 46.2658 18.056C46.5281 18.0955 46.7905 18.1266 47.053 18.1494C47.3155 18.1722 47.5804 18.1836 47.848 18.1834C48.4474 18.1871 49.0454 18.1245 49.6314 17.9966C50.15 17.8863 50.6439 17.679 51.0877 17.3854C51.502 17.1074 51.837 16.7239 52.0591 16.2733C52.3035 15.7395 52.421 15.1551 52.402 14.5669C52.4112 14.1287 52.3462 13.6922 52.2098 13.2763C52.0927 12.9339 51.904 12.6213 51.6564 12.36Z" fill="#D4EEFC"/>
<path d="M61.677 16.9272C61.5546 16.9386 61.4313 16.9198 61.3176 16.8725C61.2038 16.8252 61.103 16.7508 61.0237 16.6556C60.8685 16.3835 60.804 16.0679 60.8399 15.7557L60.873 12.2581C60.8768 11.8914 60.8317 11.5259 60.7391 11.1715C60.6579 10.8605 60.5218 10.567 60.3373 10.3053C60.151 10.0495 59.9145 9.83564 59.6427 9.67706C59.3267 9.49536 58.9851 9.36376 58.6298 9.28683C58.1953 9.19168 57.7517 9.14612 57.3071 9.15101C56.9544 9.15074 56.602 9.17333 56.2521 9.21864C55.9216 9.26104 55.5943 9.32634 55.2726 9.41416C54.9743 9.49613 54.6807 9.59535 54.3936 9.7113L54.1927 11.1545C54.4717 11.0529 54.7371 10.968 54.988 10.8998C55.2388 10.8316 55.4819 10.7753 55.7163 10.73C55.946 10.6856 56.1782 10.6545 56.4114 10.6369C56.6399 10.6199 56.8658 10.6113 57.0892 10.6111C57.4306 10.6038 57.7714 10.6438 58.1021 10.73C58.3435 10.7913 58.5655 10.9141 58.747 11.0868C58.9086 11.2547 59.024 11.4625 59.0819 11.6896C59.1533 11.9695 59.1871 12.2579 59.1823 12.547L59.1804 12.9729L57.2237 13.1073C56.5543 13.1262 55.8949 13.276 55.2815 13.5484C54.8225 13.7522 54.4262 14.0777 54.1343 14.4908C53.8868 14.8584 53.7555 15.2936 53.7577 15.7387C53.7545 16.1564 53.8554 16.5683 54.0509 16.936C54.2556 17.3136 54.5638 17.623 54.938 17.8271C55.3948 18.068 55.9052 18.185 56.4197 18.1667C56.9018 18.1779 57.3817 18.0973 57.8345 17.9292C58.226 17.7739 58.5842 17.5433 58.8893 17.2501C59.0054 17.1376 59.1153 17.0188 59.2189 16.8944C59.2514 17.0703 59.3127 17.2394 59.4003 17.3947C59.5494 17.6546 59.7787 17.8575 60.0529 17.972C60.3561 18.0955 60.6807 18.1561 61.0073 18.1502C61.1081 18.1502 61.2054 18.1471 61.3003 18.1417C61.3934 18.1361 61.4859 18.1218 61.5765 18.099C61.6658 18.0764 61.7468 18.0569 61.8193 18.0396C61.8849 18.0249 61.9493 18.005 62.0118 17.9802L62.1961 16.8429C62.1037 16.875 62.0085 16.8977 61.9117 16.9108C61.8339 16.9211 61.7555 16.9266 61.677 16.9272ZM58.8891 16.1632C58.7075 16.3087 58.511 16.4341 58.303 16.537C58.0958 16.6391 57.8763 16.7133 57.6501 16.7577C57.4156 16.8034 57.1773 16.8261 56.9385 16.8253C56.6657 16.8334 56.3944 16.7813 56.1435 16.6725C55.9391 16.5828 55.7667 16.4318 55.6493 16.2398C55.5333 16.0363 55.4754 15.8041 55.4819 15.5692C55.4657 15.286 55.5423 15.0053 55.6998 14.7709C55.882 14.5552 56.129 14.4061 56.4028 14.3465C56.8305 14.2445 57.2694 14.1989 57.7087 14.2109H59.1748L59.1676 15.896C59.0823 15.9928 58.9892 16.0823 58.8891 16.1632Z" fill="#D4EEFC"/>
<path d="M59.9523 5.11011H58.1443L56.7211 8.14928H58.0273L59.9523 5.11011Z" fill="#D4EEFC"/>
<path d="M70.2239 9.68581C69.623 9.31272 68.9273 9.12675 68.2232 9.15098C67.8052 9.15309 67.3892 9.20716 66.9842 9.31199C66.5466 9.42499 66.1247 9.59336 65.7285 9.81314C65.6498 9.85643 65.5719 9.90454 65.4938 9.95321V9.16794L63.7863 9.43962V21.5621H65.4938V17.7608C65.5052 17.7656 65.5159 17.771 65.5276 17.7761C65.837 17.9062 66.1599 18.0002 66.4903 18.0563C66.8804 18.1215 67.2753 18.1528 67.6707 18.1496C68.4244 18.1628 69.1677 17.9691 69.8218 17.5891C70.4643 17.203 70.9865 16.6411 71.3286 15.9679C71.7238 15.1651 71.9164 14.2755 71.8893 13.3786C71.9051 12.6204 71.7596 11.8676 71.4627 11.1714C71.2007 10.5648 70.7703 10.0486 70.2239 9.68581ZM69.7803 15.3651C69.5791 15.816 69.242 16.1905 68.8176 16.4345C68.3457 16.6852 67.818 16.8081 67.2856 16.7914C67.0305 16.7915 66.7758 16.7716 66.5237 16.7316C66.2593 16.689 65.9989 16.6238 65.7453 16.5367C65.6649 16.5084 65.5778 16.4761 65.4941 16.445V11.0868C65.5164 11.0763 65.5393 11.0628 65.5613 11.0526C65.8069 10.9394 66.0357 10.8431 66.2478 10.7637C66.4486 10.6876 66.656 10.6307 66.8673 10.5939C67.0553 10.5611 67.2455 10.544 67.4362 10.5429C67.9525 10.5255 68.4648 10.6394 68.9266 10.874C69.3302 11.0969 69.6463 11.4534 69.8221 11.884C70.0351 12.435 70.1349 13.0243 70.1154 13.6158C70.1331 14.2169 70.0187 14.8145 69.7803 15.3651Z" fill="#D4EEFC"/>
<path d="M85.5347 9.50756C85.0782 9.25619 84.5638 9.13309 84.0446 9.15101C83.594 9.14978 83.1465 9.2273 82.7219 9.3802C82.2906 9.53684 81.8844 9.75702 81.5164 10.0336C81.3079 10.1904 81.1095 10.3605 80.9223 10.543C80.7508 10.1179 80.4482 9.76051 80.0598 9.52424C79.5976 9.27184 79.0775 9.14886 78.553 9.16797C78.1052 9.16805 77.6608 9.24549 77.2387 9.39692C76.8055 9.55158 76.3966 9.76896 76.0248 10.0424C75.9045 10.1301 75.7879 10.2254 75.6732 10.3253V9.16911L73.9654 9.42379V17.998H75.6732V11.5379C75.8743 11.4042 76.0841 11.2844 76.301 11.1791C76.5666 11.0516 76.8443 10.952 77.1298 10.8817C77.3928 10.816 77.6626 10.7819 77.9335 10.7801C78.1822 10.7724 78.4299 10.8157 78.6618 10.9074C78.8536 10.9898 79.023 11.1179 79.1557 11.2807C79.3011 11.4701 79.4014 11.691 79.4487 11.9262C79.514 12.23 79.5449 12.5403 79.5408 12.8512V17.996H81.2485V12.4946C81.2497 12.1699 81.2281 11.8454 81.1838 11.5238C81.3774 11.395 81.5779 11.2771 81.7844 11.1706C82.0454 11.0372 82.3206 10.9346 82.6047 10.865C82.8733 10.7982 83.1486 10.7638 83.4251 10.7628C83.671 10.7569 83.9157 10.8002 84.1451 10.8905C84.3403 10.971 84.5128 11.0994 84.6473 11.264C84.793 11.4531 84.8933 11.674 84.9403 11.9092C85.0056 12.2131 85.0365 12.5235 85.0324 12.8345V17.996H86.7402V12.478C86.7617 11.8358 86.6594 11.1956 86.4388 10.5933C86.265 10.1394 85.9468 9.75738 85.5347 9.50756Z" fill="#D4EEFC"/>
<path d="M89.2683 17.9969H90.9761V9.16798L89.2683 9.42267V17.9969Z" fill="#D4EEFC"/>
<path d="M91.1435 6.03516C91.0441 5.86101 90.903 5.71503 90.7333 5.6107C90.5595 5.50306 90.3594 5.44723 90.1557 5.44966C89.9496 5.4479 89.7468 5.50363 89.5697 5.6107C89.3951 5.71435 89.2484 5.86016 89.1428 6.03516C89.0366 6.2115 88.9814 6.41457 88.9837 6.62119C88.982 6.83031 89.037 7.03588 89.1428 7.21543C89.245 7.39318 89.3924 7.53979 89.5697 7.6399C89.7485 7.74197 89.9506 7.79467 90.1557 7.79272C90.3583 7.79535 90.5578 7.74256 90.7333 7.6399C90.9057 7.53902 91.0475 7.39223 91.1435 7.21543C91.2442 7.03414 91.2961 6.82923 91.2942 6.62119C91.2967 6.41567 91.2446 6.21328 91.1435 6.03516Z" fill="#D4EEFC"/>
</svg>

<svg xmlns="http://www.w3.org/2000/svg" viewBox="0 0 98 24"><path fill="#1767CE" d="M0 0h98v24H0z"/><path fill="#fff" d="M6 17.997V5.998h4v12H6Zm9.244-10.089 2.264 10.09H13.2l-2.704-12h2.417a2.276 2.276 0 0 1 1.512.55c.422.346.66.826.82 1.36ZM18 17.998v-12h4v12h-4Zm7.01-7.437a2.382 2.382 0 0 1-2.4-2.4 2.301 2.301 0 0 1 .322-1.2A2.41 2.41 0 0 1 26.21 6.1c.356.21.653.506.862.862.215.363.326.778.321 1.2a2.35 2.35 0 0 1-.321 1.208 2.4 2.4 0 0 1-.862.87 2.3 2.3 0 0 1-1.2.321ZM28 17.997V5.998h4v12h-4Zm8.974-5.441c.01.011.095.15.253.414s.364.602.617 1.014a315.936 315.936 0 0 1 1.597 2.62c.247.41.529.875.845 1.393H35.96c-.27-.44-.516-.836-.736-1.191-.22-.355-.453-.738-.7-1.15-.248-.41-.493-.81-.736-1.2-.242-.388-.45-.73-.625-1.022-.175-.292-.296-.49-.363-.591a1.747 1.747 0 0 1-.287-.845c.016-.29.11-.57.27-.812.067-.112.191-.312.371-.6a182.106 182.106 0 0 0 1.37-2.23l.7-1.158.736-1.2h4.326l-3.346 5.459a1.08 1.08 0 0 0-.17.54c.012.203.083.397.204.559Z"/><path fill="#D4EEFC" d="M51.656 12.36a3.183 3.183 0 0 0-.837-.62 6.48 6.48 0 0 0-1.013-.416 11.4 11.4 0 0 0-1.105-.289c-.29-.067-.56-.135-.812-.203a3.69 3.69 0 0 1-.67-.247 2.206 2.206 0 0 1-.51-.34 1.223 1.223 0 0 1-.327-.474 1.855 1.855 0 0 1-.108-.671 2.068 2.068 0 0 1 .108-.696c.07-.198.184-.376.335-.518.157-.146.335-.266.528-.356.22-.102.454-.171.695-.204.285-.041.574-.061.862-.06.263 0 .525.015.787.043.264.028.527.07.787.127.252.056.501.127.745.212.228.08.45.18.661.297l.235-1.494a4.138 4.138 0 0 0-.745-.305 9.914 9.914 0 0 0-.796-.204 7.845 7.845 0 0 0-.82-.127 8.457 8.457 0 0 0-.854-.043 7.033 7.033 0 0 0-1.758.204c-.49.12-.953.333-1.364.628-.38.276-.684.644-.888 1.07a3.499 3.499 0 0 0-.31 1.528c-.009.407.056.813.193 1.196.12.322.306.614.544.858.236.239.507.44.804.594.314.165.642.301.98.408.351.113.711.21 1.08.289.3.067.58.138.837.212.238.067.47.155.694.263.192.092.37.212.528.357.15.142.266.316.343.51.089.232.131.48.126.73.004.264-.036.528-.118.78-.073.218-.187.42-.335.594a1.613 1.613 0 0 1-.535.408 2.675 2.675 0 0 1-.729.22c-.307.048-.618.071-.928.069-.303-.001-.605-.021-.905-.06-.312-.04-.625-.093-.938-.162a9.296 9.296 0 0 1-.912-.246 17.043 17.043 0 0 1-.845-.297l.217 1.681c.286.108.576.202.871.28.267.071.538.128.812.17.262.04.525.07.787.093.263.023.527.035.795.034.6.004 1.197-.058 1.783-.186a4.237 4.237 0 0 0 1.457-.612c.414-.278.749-.661.971-1.112a3.805 3.805 0 0 0 .343-1.706 3.88 3.88 0 0 0-.192-1.29 2.515 2.515 0 0 0-.554-.917ZM61.677 16.927a.754.754 0 0 1-.653-.271 1.477 1.477 0 0 1-.184-.9l.033-3.498a4.13 4.13 0 0 0-.134-1.086 2.677 2.677 0 0 0-.402-.867 2.283 2.283 0 0 0-.694-.628 3.531 3.531 0 0 0-1.013-.39 5.88 5.88 0 0 0-1.323-.136c-.353 0-.705.022-1.055.068-.33.042-.658.107-.98.195a8.028 8.028 0 0 0-.878.297l-.201 1.444a9.997 9.997 0 0 1 1.523-.425 6.07 6.07 0 0 1 .695-.093c.229-.017.455-.026.678-.026.342-.007.682.033 1.013.119.242.061.464.184.645.357.162.168.277.376.335.603.071.28.105.568.1.857l-.002.426-1.956.134a5.142 5.142 0 0 0-1.942.441c-.46.204-.856.53-1.148.943a2.215 2.215 0 0 0-.376 1.248c-.004.417.097.83.293 1.197.205.378.513.687.887.891.457.241.967.358 1.482.34a3.81 3.81 0 0 0 1.414-.238c.392-.155.75-.386 1.055-.679.116-.112.226-.231.33-.356.032.176.094.345.181.5.15.26.379.464.653.578.303.123.628.184.954.178.101 0 .198-.003.293-.008.093-.006.186-.02.277-.043l.242-.06c.066-.014.13-.034.193-.059l.184-1.137a1.465 1.465 0 0 1-.284.068 1.9 1.9 0 0 1-.235.016Zm-2.788-.764c-.181.146-.378.271-.586.374a2.618 2.618 0 0 1-.653.22 3.656 3.656 0 0 1-.712.068 1.86 1.86 0 0 1-.794-.152 1.096 1.096 0 0 1-.495-.433 1.283 1.283 0 0 1-.167-.67c-.016-.284.06-.565.218-.8.182-.215.429-.364.703-.423a5.036 5.036 0 0 1 1.306-.136h1.466l-.007 1.685a2.29 2.29 0 0 1-.279.267ZM59.952 5.11h-1.808l-1.423 3.04h1.306l1.925-3.04ZM70.224 9.686a3.56 3.56 0 0 0-2-.535 5.045 5.045 0 0 0-1.24.161 5.342 5.342 0 0 0-1.49.641v-.785l-1.708.272v12.122h1.708v-3.801l.034.015c.309.13.632.224.962.28.39.066.785.097 1.18.094a4.137 4.137 0 0 0 2.152-.56 4.008 4.008 0 0 0 1.507-1.622 5.489 5.489 0 0 0 .56-2.59 5.344 5.344 0 0 0-.426-2.207 3.4 3.4 0 0 0-1.24-1.485Zm-.444 5.68c-.2.45-.538.825-.962 1.069-.472.25-1 .373-1.532.356a4.696 4.696 0 0 1-1.791-.346v-5.358c.021-.01.044-.024.066-.034.246-.114.475-.21.687-.29a3.389 3.389 0 0 1 1.188-.22 3.062 3.062 0 0 1 1.49.331c.404.223.72.58.896 1.01.213.551.313 1.14.293 1.732a4.1 4.1 0 0 1-.335 1.75ZM85.535 9.508a2.882 2.882 0 0 0-1.49-.357 3.872 3.872 0 0 0-1.323.23 4.647 4.647 0 0 0-1.206.653 6.123 6.123 0 0 0-.594.509 2.12 2.12 0 0 0-.862-1.019 2.921 2.921 0 0 0-1.507-.356c-.448 0-.892.077-1.314.229a4.738 4.738 0 0 0-1.566.928V9.17l-1.708.255v8.574h1.708v-6.46a5.37 5.37 0 0 1 .628-.359 4.28 4.28 0 0 1 .829-.297c.263-.066.533-.1.803-.102.25-.008.497.036.729.127a1.3 1.3 0 0 1 .494.374c.145.19.245.41.293.645.065.304.096.614.092.925v5.145h1.708v-5.501c0-.325-.02-.65-.065-.971.193-.129.394-.247.6-.353.261-.134.537-.236.82-.306a3.45 3.45 0 0 1 .821-.102c.246-.006.49.037.72.127.195.081.368.21.502.374.146.19.246.41.293.645.066.304.097.614.092.925v5.162h1.708v-5.518a4.995 4.995 0 0 0-.301-1.885 2.18 2.18 0 0 0-.904-1.085ZM89.268 17.997h1.708V9.168l-1.708.255v8.574ZM91.144 6.035a1.19 1.19 0 0 0-.41-.424 1.072 1.072 0 0 0-.578-.161 1.114 1.114 0 0 0-.586.16c-.175.104-.322.25-.427.425-.106.176-.162.38-.16.586-.001.21.054.415.16.594a1.16 1.16 0 0 0 1.013.577 1.099 1.099 0 0 0 .988-.577c.1-.18.152-.386.15-.594a1.159 1.159 0 0 0-.15-.586Z"/></svg>
